brandFactory_export/1.Light/WiFi_1Light.svg

<?xml version="1.0" encoding="UTF-8"?>
<svg width="24px" height="24px" viewBox="0 0 24 24" version="1.1" xmlns="http://www.w3.org/2000/svg" xmlns:xlink="http://www.w3.org/1999/xlink">
    <title>1.Light/WiFi_1Light</title>
    <g id="Symbols" stroke="none" stroke-width="1" fill="none" fill-rule="evenodd">
        <g id="1.Light/WiFi_1Light" fill="#5CB615" fill-rule="nonzero">
            <path d="M11.8016807,16.8336134 C12.5378151,16.8336134 13.112605,17.0319328 13.5159664,17.4184874 C13.9361345,17.8218487 14.1478992,18.4134454 14.1478992,19.1798319 C14.1478992,20.692437 13.3142857,21.5260504 11.8016807,21.5260504 C10.2890756,21.5260504 9.45546218,20.692437 9.45546218,19.1798319 C9.45546218,17.6672269 10.2890756,16.8336134 11.8016807,16.8336134 Z M11.8016807,17.5260504 C10.6722689,17.5260504 10.1478992,18.0504202 10.1478992,19.1798319 C10.1478992,20.3092437 10.6722689,20.8336134 11.8016807,20.8336134 C12.9310924,20.8336134 13.4554622,20.3092437 13.4554622,19.1798319 C13.4554622,18.6084034 13.3142857,18.1848739 13.0352941,17.9159664 C12.7663866,17.6571429 12.3529412,17.5260504 11.8016807,17.5260504 Z M11.8453782,12.1008403 C12.9210084,12.1008403 13.9630252,12.312605 14.9478992,12.7294118 C15.8554622,13.112605 16.6789916,13.6571429 17.3915966,14.3495798 C17.5294118,14.4840336 17.5327731,14.702521 17.3983193,14.8403361 C17.2638655,14.9781513 17.0453782,14.9815126 16.907563,14.8470588 C16.2554622,14.2151261 15.5058824,13.7176471 14.6756303,13.3680672 C13.7781513,12.9882353 12.8235294,12.7932773 11.8420168,12.7932773 C10.8369748,12.7932773 9.86554622,12.994958 8.94789916,13.3882353 C8.10420168,13.7546218 7.34789916,14.2689076 6.69243697,14.9243697 C6.63193277,14.9915966 6.54117647,15.0252101 6.45378151,15.0252101 C6.36638655,15.0252101 6.27563025,14.9915966 6.20840336,14.9243697 C6.07394958,14.789916 6.07394958,14.5714286 6.20840336,14.4336134 C6.92436975,13.7176471 7.75462185,13.1529412 8.6789916,12.7529412 C9.68067227,12.3193277 10.7462185,12.1008403 11.8453782,12.1008403 Z M11.8487395,7.05210084 C13.4991597,7.05210084 15.1058824,7.37478992 16.6184874,8.01344538 C18.0470588,8.61512605 19.3344538,9.47226891 20.4470588,10.5613445 C20.5848739,10.6957983 20.5848739,10.9142857 20.4504202,11.0521008 C20.3159664,11.189916 20.097479,11.189916 19.9596639,11.0554622 C18.9109244,10.0268908 17.697479,9.22016807 16.3495798,8.65210084 C14.9210084,8.05042017 13.4084034,7.74453782 11.8487395,7.74453782 C10.2689076,7.74453782 8.7394958,8.05714286 7.30084034,8.66890756 C5.9394958,9.25042017 4.71260504,10.0773109 3.65714286,11.1260504 L3.64369748,11.1394958 C3.57647059,11.210084 3.48907563,11.2436975 3.39831933,11.2436975 C3.31092437,11.2436975 3.22352941,11.210084 3.15630252,11.1428571 C3.02184874,11.0084034 3.01848739,10.789916 3.15294118,10.6554622 L3.1697479,10.6386555 C4.28907563,9.52605042 5.58655462,8.6487395 7.02857143,8.03361345 C8.55462185,7.38151261 10.1747899,7.05210084 11.8487395,7.05210084 Z M11.8554622,2 C14.0840336,2 16.2487395,2.43361345 18.2890756,3.2907563 C20.2386555,4.11092437 21.9932773,5.28067227 23.4991597,6.76302521 C23.6336134,6.89747899 23.6369748,7.11596639 23.502521,7.25378151 C23.3680672,7.38823529 23.1495798,7.39159664 23.0117647,7.25714286 C21.5697479,5.83529412 19.8890756,4.71596639 18.0201681,3.92941176 C16.0638655,3.1092437 13.989916,2.69243697 11.8521008,2.69243697 C9.70084034,2.69243697 7.61344538,3.11260504 5.65042017,3.94621849 C3.76470588,4.74621849 2.06722689,5.88571429 0.608403361,7.33781513 L0.588235294,7.35798319 C0.524369748,7.42857143 0.433613445,7.46218487 0.346218487,7.46218487 C0.258823529,7.46218487 0.168067227,7.42857143 0.100840336,7.36134454 C-0.0336134454,7.22689076 -0.0336134454,7.00840336 0.100840336,6.87058824 L0.124369748,6.84705882 C1.64705882,5.33109244 3.41848739,4.14117647 5.38487395,3.30756303 C7.43193277,2.44033613 9.61008403,2 11.8554622,2 Z" id="WiFi_1Light"></path>
        </g>
    </g>
</svg>

<svg width="24" height="24" viewBox="0 0 24 24" xmlns="http://www.w3.org/2000/svg"><path d="M11.802 16.834c.736 0 1.31.198 1.714.584.42.404.632.995.632 1.762 0 1.512-.834 2.346-2.346 2.346-1.513 0-2.347-.834-2.347-2.346 0-1.513.834-2.346 2.347-2.346zm0 .692c-1.13 0-1.654.524-1.654 1.654s.524 1.654 1.654 1.654 1.653-.525 1.653-1.654c0-.572-.14-.995-.42-1.264-.269-.259-.682-.39-1.233-.39zm.043-5.425c1.076 0 2.118.212 3.103.628a7.91 7.91 0 012.444 1.62.346.346 0 01.006.491.346.346 0 01-.49.007 7.222 7.222 0 00-2.232-1.479 7.3 7.3 0 00-5.728.02c-.844.367-1.6.88-2.256 1.536a.323.323 0 01-.238.101.349.349 0 01-.246-.1.349.349 0 010-.491 7.935 7.935 0 015.637-2.333zm.004-5.049a12.247 12.247 0 018.598 3.51.346.346 0 01.003.49.346.346 0 01-.49.003 11.52 11.52 0 00-3.61-2.403 11.528 11.528 0 00-4.501-.907c-1.58 0-3.11.312-4.548.924a11.634 11.634 0 00-3.644 2.457l-.013.013a.341.341 0 01-.487.003.345.345 0 01-.004-.487l.017-.016a12.299 12.299 0 013.859-2.605 12.19 12.19 0 014.82-.982zM11.855 2A16.543 16.543 0 0123.5 6.763a.349.349 0 01.004.49.349.349 0 01-.491.004 15.865 15.865 0 00-11.16-4.565c-2.151 0-4.239.42-6.202 1.254A15.94 15.94 0 00.608 7.338l-.02.02a.326.326 0 01-.242.104.349.349 0 01-.245-.1.349.349 0 010-.491l.023-.024a16.618 16.618 0 015.26-3.54A16.5 16.5 0 0111.856 2z" fill="#5CB615" fill-rule="nonzero"/></svg>
